X: 4629
T: Mrs. Crowley's
M:2/4
L:1/8
S:IrTrad; Caroline Foty, 4/98
R:polka
K:G
DG EG/2E/2|DG EG/2E/2|DG A>A|BA A2|DG EG/2E/2|DG EG/2E/2|DG A>c|BGGB||
dB gB|dB g>B|dB gB|cA A>B|dB gB|dB gB|GB A>c|BG GB|dB gB|dB g>B|dB gB|
cA A>B|dB gB|dB gB|GB A>c|BG G2||
